peanut-off-outline.svg

<svg fill="currentColor" viewBox="0 0 24 24"><path d="m22.11 21.46-1.27 1.27-3.15-3.15c-.33.63-.76 1.19-1.28 1.67a6.43 6.43 0 0 1-5.8 1.6c-3.51-.75-5.74-4.21-4.99-7.72.25-1.18.83-2.26 1.66-3.13a.93.93 0 0 0 0-1.28 6 6 0 0 1-1.24-2.79L1.11 3l1.28-1.27zm-6.81-1.9c.39-.43.7-.93.89-1.48l-2.44-2.44c-.18.23-.46.36-.75.36-.55 0-1-.45-1-1 0-.29.13-.57.36-.75l-2.81-2.81c-.02.74-.31 1.44-.82 1.97-1.7 1.81-1.6 4.66.21 6.36l.01.01a4.5 4.5 0 0 0 6.35-.22M14 17c-1.29 0-1.28 2 0 2s1.29-2 0-2M6.9 3.7l1.53 1.53c.25-.52.62-.98 1.07-1.34.7-.58 1.59-.89 2.5-.89h.88c.59.14 1.12.41 1.62.79 1.72 1.38 2 3.9.62 5.62a3 3 0 0 0-.67 1.84l3.87 3.87c-.25-1.15-.82-2.2-1.6-3.06-.35-.36-.39-.93-.1-1.34C16.62 10.72 18 9 18 7S15.97.997 12 .997 6.9 3.7 6.9 3.7M12 17c0-1.29-2-1.28-2 0s2 1.29 2 0m1-12c-1.29 0-1.28 2 0 2s1.29-2 0-2"/></svg>

<svg  viewBox="0 0 24 24" fill="currentColor"><path  d="M22.11 21.46L20.84 22.73L17.69 19.58C17.36 20.21 16.93 20.77 16.41 21.25C14.86 22.71 12.69 23.31 10.61 22.85C7.1 22.1 4.87 18.64 5.62 15.13C5.87 13.95 6.45 12.87 7.28 12C7.62 11.64 7.62 11.08 7.28 10.72C6.63 9.91 6.21 8.95 6.04 7.93L1.11 3L2.39 1.73L22.11 21.46M15.3 19.56C15.69 19.13 16 18.63 16.19 18.08L13.75 15.64C13.57 15.87 13.29 16 13 16C12.45 16 12 15.55 12 15C12 14.71 12.13 14.43 12.36 14.25L9.55 11.44C9.53 12.18 9.24 12.88 8.73 13.41C7.03 15.22 7.13 18.07 8.94 19.77L8.95 19.78C10.76 21.47 13.61 21.37 15.3 19.56M14 17C12.71 17 12.72 19 14 19C15.28 19 15.29 17 14 17M6.9 3.7L8.43 5.23C8.68 4.71 9.05 4.25 9.5 3.89C10.2 3.31 11.09 3 12 3H12.88C13.47 3.14 14 3.41 14.5 3.79C16.22 5.17 16.5 7.69 15.12 9.41C14.7 9.93 14.46 10.58 14.45 11.25L18.32 15.12C18.07 13.97 17.5 12.92 16.72 12.06C16.37 11.7 16.33 11.13 16.62 10.72C16.62 10.72 18 9 18 7S15.97.997 12 .997 6.9 3.7 6.9 3.7M12 17C12 15.71 10 15.72 10 17C10 18.28 12 18.29 12 17M13 5C11.71 5 11.72 7 13 7C14.28 7 14.29 5 13 5Z"/></svg>
